Case/box_detection_alarm.svg

<?xml version="1.0" encoding="UTF-8" standalone="no"?>
<svg
   width="302mm"
   height="303mm"
   viewBox="0 0 302 303"
   version="1.1"
   preserveAspectRatio="xMidYMid meet"
   id="svg9"
   sodipodi:docname="box (1).svg"
   inkscape:version="1.2 (dc2aedaf03, 2022-05-15)"
   xmlns:inkscape="http://www.inkscape.org/namespaces/inkscape"
   xmlns:sodipodi="http://sodipodi.sourceforge.net/DTD/sodipodi-0.dtd"
   xmlns="http://www.w3.org/2000/svg"
   xmlns:svg="http://www.w3.org/2000/svg">
  <defs
     id="defs13" />
  <sodipodi:namedview
     id="namedview11"
     pagecolor="#ffffff"
     bordercolor="#000000"
     borderopacity="0.25"
     inkscape:showpageshadow="2"
     inkscape:pageopacity="0.0"
     inkscape:pagecheckerboard="0"
     inkscape:deskcolor="#d1d1d1"
     inkscape:document-units="mm"
     showgrid="false"
     inkscape:zoom="2.0470873"
     inkscape:cx="286.50463"
     inkscape:cy="378.34244"
     inkscape:window-width="1920"
     inkscape:window-height="991"
     inkscape:window-x="2391"
     inkscape:window-y="-9"
     inkscape:window-maximized="1"
     inkscape:current-layer="svgGroup" />
  <g
     id="svgGroup"
     stroke-linecap="round"
     fill-rule="evenodd"
     font-size="9pt"
     stroke="#000"
     stroke-width="0.25mm"
     fill="none"
     style="stroke:#000;stroke-width:0.25mm;fill:none"
     inkscape:label="svgGroup">
    <path
       d="M 0 153 L 0 164.25 L 3 164.25 L 3 171.75 L 0 171.75 L 0 179.25 L 3 179.25 L 3 186.75 L 0 186.75 L 0 194.25 L 3 194.25 L 3 201.75 L 0 201.75 L 0 209.25 L 3 209.25 L 3 216.75 L 0 216.75 L 0 224.25 L 3 224.25 L 3 231.75 L 0 231.75 L 0 239.25 L 3 239.25 L 3 246.75 L 0 246.75 L 0 254.25 L 3 254.25 L 3 261.75 L 0 261.75 L 0 269.25 L 3 269.25 L 3 276.75 L 0 276.75 L 0 284.25 L 3 284.25 L 3 291.75 L 0 291.75 L 0 299.25 L 0 303 L 8.75 303 L 8.75 300 L 16.25 300 L 16.25 303 L 23.75 303 L 23.75 300 L 31.25 300 L 31.25 303 L 38.75 303 L 38.75 300 L 46.25 300 L 46.25 303 L 53.75 303 L 53.75 300 L 61.25 300 L 61.25 303 L 68.75 303 L 68.75 300 L 76.25 300 L 76.25 303 L 83.75 303 L 83.75 300 L 91.25 300 L 91.25 303 L 98.75 303 L 98.75 300 L 106.25 300 L 106.25 303 L 113.75 303 L 113.75 300 L 121.25 300 L 121.25 303 L 130 303 L 130 291.75 L 127 291.75 L 127 284.25 L 130 284.25 L 130 276.75 L 127 276.75 L 127 269.25 L 130 269.25 L 130 261.75 L 127 261.75 L 127 254.25 L 130 254.25 L 130 246.75 L 127 246.75 L 127 239.25 L 130 239.25 L 130 231.75 L 127 231.75 L 127 224.25 L 130 224.25 L 130 216.75 L 127 216.75 L 127 209.25 L 130 209.25 L 130 201.75 L 127 201.75 L 127 194.25 L 130 194.25 L 130 186.75 L 127 186.75 L 127 179.25 L 130 179.25 L 130 171.75 L 127 171.75 L 127 164.25 L 130 164.25 L 130 156.75 L 130 153 L 121.25 153 L 121.25 156 L 113.75 156 L 113.75 153 L 106.25 153 L 106.25 156 L 98.75 156 L 98.75 153 L 91.25 153 L 91.25 156 L 83.75 156 L 83.75 153 L 76.25 153 L 76.25 156 L 68.75 156 L 68.75 153 L 61.25 153 L 61.25 156 L 53.75 156 L 53.75 153 L 46.25 153 L 46.25 156 L 38.75 156 L 38.75 153 L 31.25 153 L 31.25 156 L 23.75 156 L 23.75 153 L 16.25 153 L 16.25 156 L 8.75 156 L 8.75 153 L 0 153 Z"
       id="front_outsideCutPath"
       stroke="#FF0000"
       stroke-width="0.1"
       style="stroke:#FF0000;stroke-width:0.1"
       vector-effect="non-scaling-stroke" />
    <path
       d="m 136,153 v 11.25 h -3 v 7.5 h 3 v 7.5 h -3 v 7.5 h 3 v 7.5 h -3 v 7.5 h 3 v 7.5 h -3 v 7.5 h 3 v 7.5 h -3 v 7.5 h 3 v 7.5 h -3 v 7.5 h 3 v 7.5 h -3 v 7.5 h 3 v 7.5 h -3 v 7.5 h 3 v 7.5 h -3 v 7.5 h 3 v 7.5 3.75 h 3.75 v -3 h 7.5 v 3 h 7.5 v -3 h 7.5 v 3 H 166 v -11.25 h 3 v -7.5 h -3 v -7.5 h 3 v -7.5 h -3 v -7.5 h 3 v -7.5 h -3 v -7.5 h 3 v -7.5 h -3 v -7.5 h 3 v -7.5 h -3 v -7.5 h 3 v -7.5 h -3 v -7.5 h 3 v -7.5 h -3 v -7.5 h 3 v -7.5 h -3 v -7.5 h 3 v -7.5 h -3 v -7.5 -3.75 h -3.75 v 3 h -7.5 v -3 h -7.5 v 3 h -7.5 v -3 z"
       id="left_outsideCutPath"
       stroke="#FF0000"
       stroke-width="0.1"
       style="stroke:#ff0000;stroke-width:0.1"
       vector-effect="non-scaling-stroke"
       sodipodi:insensitive="true" />
    <path
       d="m 175,270 v 3.75 h -3 v 7.5 h 3 v 7.5 h -3 v 7.5 h 3 V 300 h 5.75 v 3 h 7.5 v -3 h 7.5 v 3 h 7.5 v -3 h 7.5 v 3 h 7.5 v -3 h 7.5 v 3 h 7.5 v -3 h 7.5 v 3 h 7.5 v -3 h 7.5 v 3 h 7.5 v -3 h 7.5 v 3 h 7.5 v -3 h 7.5 v 3 h 7.5 v -3 H 299 v -3.75 h 3 v -7.5 h -3 v -7.5 h 3 v -7.5 h -3 V 270 h -5.75 v -3 h -7.5 v 3 h -7.5 v -3 h -7.5 v 3 h -7.5 v -3 h -7.5 v 3 h -7.5 v -3 h -7.5 v 3 h -7.5 v -3 h -7.5 v 3 h -7.5 v -3 h -7.5 v 3 h -7.5 v -3 h -7.5 v 3 h -7.5 v -3 h -7.5 v 3 z"
       id="top_outsideCutPath"
       stroke="#FF0000"
       stroke-width="0.1"
       style="stroke:#ff0000;stroke-width:0.1"
       vector-effect="non-scaling-stroke"
       sodipodi:insensitive="true" />
    <path
       d="m 0,0 v 11.25 h 3 v 7.5 H 0 v 7.5 h 3 v 7.5 H 0 v 7.5 h 3 v 7.5 H 0 v 7.5 h 3 v 7.5 H 0 v 7.5 h 3 v 7.5 H 0 v 7.5 h 3 v 7.5 H 0 v 7.5 h 3 v 7.5 H 0 v 7.5 h 3 v 7.5 H 0 v 7.5 h 3 v 7.5 H 0 v 7.5 3.75 h 8.75 v -3 h 7.5 v 3 h 7.5 v -3 h 7.5 v 3 h 7.5 v -3 h 7.5 v 3 h 7.5 v -3 h 7.5 v 3 h 7.5 v -3 h 7.5 v 3 h 7.5 v -3 h 7.5 v 3 h 7.5 v -3 h 7.5 v 3 h 7.5 v -3 h 7.5 v 3 H 130 v -11.25 h -3 v -7.5 h 3 v -7.5 h -3 v -7.5 h 3 v -7.5 h -3 v -7.5 h 3 v -7.5 h -3 v -7.5 h 3 v -7.5 h -3 v -7.5 h 3 v -7.5 h -3 v -7.5 h 3 v -7.5 h -3 v -7.5 h 3 v -7.5 h -3 v -7.5 h 3 v -7.5 h -3 v -7.5 h 3 V 3.75 0 h -8.75 v 3 h -7.5 V 0 h -7.5 v 3 h -7.5 V 0 h -7.5 v 3 h -7.5 V 0 h -7.5 v 3 h -7.5 V 0 h -7.5 v 3 h -7.5 V 0 h -7.5 v 3 h -7.5 V 0 h -7.5 v 3 h -7.5 V 0 h -7.5 V 3 H 8.75 V 0 Z"
       id="back_outsideCutPath"
       stroke="#FF0000"
       stroke-width="0.1"
       style="stroke:#ff0000;stroke-width:0.1"
       vector-effect="non-scaling-stroke" />
    <path
       d="m 136,0 v 11.25 h -3 v 7.5 h 3 v 7.5 h -3 v 7.5 h 3 v 7.5 h -3 v 7.5 h 3 v 7.5 h -3 v 7.5 h 3 v 7.5 h -3 v 7.5 h 3 v 7.5 h -3 v 7.5 h 3 v 7.5 h -3 v 7.5 h 3 v 7.5 h -3 v 7.5 h 3 v 7.5 h -3 v 7.5 h 3 v 7.5 3.75 h 3.75 v -3 h 7.5 v 3 h 7.5 v -3 h 7.5 v 3 H 166 v -11.25 h 3 v -7.5 h -3 v -7.5 h 3 v -7.5 h -3 v -7.5 h 3 v -7.5 h -3 v -7.5 h 3 v -7.5 h -3 v -7.5 h 3 v -7.5 h -3 v -7.5 h 3 v -7.5 h -3 v -7.5 h 3 v -7.5 h -3 v -7.5 h 3 v -7.5 h -3 v -7.5 h 3 v -7.5 h -3 V 3.75 0 h -3.75 v 3 h -7.5 V 0 h -7.5 v 3 h -7.5 V 0 Z"
       id="right_outsideCutPath"
       stroke="#FF0000"
       stroke-width="0.1"
       style="stroke:#ff0000;stroke-width:0.1"
       vector-effect="non-scaling-stroke"
       sodipodi:insensitive="true" />
    <path
       d="m 175,231 v 3.75 h -3 v 7.5 h 3 v 7.5 h -3 v 7.5 h 3 V 261 h 5.75 v 3 h 7.5 v -3 h 7.5 v 3 h 7.5 v -3 h 7.5 v 3 h 7.5 v -3 h 7.5 v 3 h 7.5 v -3 h 7.5 v 3 h 7.5 v -3 h 7.5 v 3 h 7.5 v -3 h 7.5 v 3 h 7.5 v -3 h 7.5 v 3 h 7.5 v -3 H 299 v -3.75 h 3 v -7.5 h -3 v -7.5 h 3 v -7.5 h -3 V 231 h -5.75 v -3 h -7.5 v 3 h -7.5 v -3 h -7.5 v 3 h -7.5 v -3 h -7.5 v 3 h -7.5 v -3 h -7.5 v 3 h -7.5 v -3 h -7.5 v 3 h -7.5 v -3 h -7.5 v 3 h -7.5 v -3 h -7.5 v 3 h -7.5 v -3 h -7.5 v 3 z"
       id="bottom_outsideCutPath"
       stroke="#FF0000"
       stroke-width="0.1"
       style="stroke:#ff0000;stroke-width:0.1"
       vector-effect="non-scaling-stroke"
       sodipodi:insensitive="true" />
    <rect
       style="fill-opacity:0;fill-rule:evenodd;stroke:#0000ff;stroke-width:0.0100132;stroke-dasharray:none;stroke-opacity:1;paint-order:normal"
       id="right_hole"
       width="14.989986"
       height="2.9899869"
       x="143.51656"
       y="114.01629" />
    <rect
       style="fill-opacity:0;fill-rule:evenodd;stroke:#0000ff;stroke-width:0.0100132;stroke-dasharray:none;stroke-opacity:1;paint-order:normal"
       id="left_hole"
       width="14.989986"
       height="2.9899869"
       x="143.50829"
       y="266.90628"
       sodipodi:insensitive="true" />
    <rect
       style="fill-opacity:0;fill-rule:evenodd;stroke:#0000ff;stroke-width:0.0100226;stroke-dasharray:none;stroke-opacity:1;paint-order:normal"
       id="led_hole"
       width="117.98998"
       height="23.989977"
       x="6.0000114"
       y="273.005"
       sodipodi:insensitive="true" />
    <g
       id="g11687"
       inkscape:label="buzzer_hole"
       transform="translate(-0.01400838,-22.219591)"
       sodipodi:insensitive="true">
      <rect
         style="fill-opacity:0;fill-rule:evenodd;stroke:#0000ff;stroke-width:0.0100313;stroke-dasharray:none;stroke-opacity:1;paint-order:normal"
         id="rect11620"
         width="73.989967"
         height="2.9899688"
         x="6.0139995"
         y="181.23358"
         ry="0"
         inkscape:label="buzzer_hole_1"
         sodipodi:insensitive="true" />
      <rect
         style="fill-opacity:0;fill-rule:evenodd;stroke:#0000ff;stroke-width:0.0100313;stroke-dasharray:none;stroke-opacity:1;paint-order:normal"
         id="rect11691"
         width="73.989967"
         height="2.9899688"
         x="6.0139995"
         y="187.2236"
         ry="0"
         inkscape:label="buzzer_hole_2"
         sodipodi:insensitive="true" />
      <rect
         style="fill-opacity:0;fill-rule:evenodd;stroke:#0000ff;stroke-width:0.0100313;stroke-dasharray:none;stroke-opacity:1;paint-order:normal"
         id="rect11693"
         width="73.989967"
         height="2.9899688"
         x="6.0139995"
         y="193.21361"
         ry="0"
         inkscape:label="buzzer_hole_3"
         sodipodi:insensitive="true" />
      <rect
         style="fill-opacity:0;fill-rule:evenodd;stroke:#0000ff;stroke-width:0.0100313;stroke-dasharray:none;stroke-opacity:1;paint-order:normal"
         id="rect11695"
         width="73.989967"
         height="2.9899688"
         x="6.0139995"
         y="199.20361"
         ry="0"
         inkscape:label="buzzer_hole_4"
         sodipodi:insensitive="true" />
      <rect
         style="fill-opacity:0;fill-rule:evenodd;stroke:#0000ff;stroke-width:0.0100313;stroke-dasharray:none;stroke-opacity:1;paint-order:normal"
         id="rect11697"
         width="73.989967"
         height="2.9899688"
         x="6.0139995"
         y="205.1936"
         ry="0"
         inkscape:label="buzzer_hole_5"
         sodipodi:insensitive="true" />
    </g>
    <rect
       style="fill-opacity:0;fill-rule:evenodd;stroke:#0000ff;stroke-width:0.01;stroke-dasharray:none;stroke-opacity:1;paint-order:normal"
       id="rect11689"
       width="22.900187"
       height="22.900187"
       x="92.004997"
       y="161.03891"
       inkscape:label="PIR_hole"
       sodipodi:insensitive="true" />
    <rect
       style="fill-opacity:0;fill-rule:evenodd;stroke:#0000ff;stroke-width:0.00999404;stroke-dasharray:none;stroke-opacity:1;paint-order:normal"
       id="rect11726"
       width="11.990006"
       height="7.990006"
       x="15.004997"
       y="92.004997"
       inkscape:label="USB_hole"
       sodipodi:insensitive="true" />
    <rect
       style="fill-opacity:0;fill-rule:evenodd;stroke:#0000ff;stroke-width:0.00999922;stroke-dasharray:none;stroke-opacity:1;paint-order:normal"
       id="rect11728"
       width="8.4900007"
       height="8.4913254"
       x="-48.494339"
       y="92.004997"
       inkscape:label="Button_hole"
       transform="scale(-1,1)"
       sodipodi:insensitive="true" />
  </g>
</svg>

<?xml version="1.0" encoding="UTF-8" standalone="no"?>
<svg
   width="302mm"
   height="303mm"
   viewBox="0 0 302 303"
   version="1.1"
   preserveAspectRatio="xMidYMid meet"
   id="svg9"
   sodipodi:docname="box_detection_alarm.svg"
   inkscape:version="1.2 (dc2aedaf03, 2022-05-15)"
   xmlns:inkscape="http://www.inkscape.org/namespaces/inkscape"
   xmlns:sodipodi="http://sodipodi.sourceforge.net/DTD/sodipodi-0.dtd"
   xmlns="http://www.w3.org/2000/svg"
   xmlns:svg="http://www.w3.org/2000/svg">
  <defs
     id="defs13" />
  <sodipodi:namedview
     id="namedview11"
     pagecolor="#ffffff"
     bordercolor="#000000"
     borderopacity="0.25"
     inkscape:showpageshadow="2"
     inkscape:pageopacity="0.0"
     inkscape:pagecheckerboard="0"
     inkscape:deskcolor="#d1d1d1"
     inkscape:document-units="mm"
     showgrid="false"
     inkscape:zoom="2.52"
     inkscape:cx="135.31746"
     inkscape:cy="56.547619"
     inkscape:window-width="1920"
     inkscape:window-height="991"
     inkscape:window-x="2391"
     inkscape:window-y="-9"
     inkscape:window-maximized="1"
     inkscape:current-layer="svgGroup" />
  <g
     id="svgGroup"
     stroke-linecap="round"
     fill-rule="evenodd"
     font-size="9pt"
     stroke="#000"
     stroke-width="0.25mm"
     fill="none"
     style="stroke:#000;stroke-width:0.25mm;fill:none"
     inkscape:label="svgGroup">
    <path
       d="m 0,153 v 11.25 h 3 v 7.5 H 0 v 7.5 h 3 v 7.5 H 0 v 7.5 h 3 v 7.5 H 0 v 7.5 h 3 v 7.5 H 0 v 7.5 h 3 v 7.5 H 0 v 7.5 h 3 v 7.5 H 0 v 7.5 h 3 v 7.5 H 0 v 7.5 h 3 v 7.5 H 0 v 7.5 h 3 v 7.5 H 0 v 7.5 3.75 h 8.75 v -3 h 7.5 v 3 h 7.5 v -3 h 7.5 v 3 h 7.5 v -3 h 7.5 v 3 h 7.5 v -3 h 7.5 v 3 h 7.5 v -3 h 7.5 v 3 h 7.5 v -3 h 7.5 v 3 h 7.5 v -3 h 7.5 v 3 h 7.5 v -3 h 7.5 v 3 H 130 v -11.25 h -3 v -7.5 h 3 v -7.5 h -3 v -7.5 h 3 v -7.5 h -3 v -7.5 h 3 v -7.5 h -3 v -7.5 h 3 v -7.5 h -3 v -7.5 h 3 v -7.5 h -3 v -7.5 h 3 v -7.5 h -3 v -7.5 h 3 v -7.5 h -3 v -7.5 h 3 v -7.5 h -3 v -7.5 h 3 v -7.5 -3.75 h -8.75 v 3 h -7.5 v -3 h -7.5 v 3 h -7.5 v -3 h -7.5 v 3 h -7.5 v -3 h -7.5 v 3 h -7.5 v -3 h -7.5 v 3 h -7.5 v -3 h -7.5 v 3 h -7.5 v -3 h -7.5 v 3 h -7.5 v -3 h -7.5 v 3 h -7.5 v -3 z"
       id="front_outsideCutPath"
       stroke="#FF0000"
       stroke-width="0.1"
       style="stroke:#ff0000;stroke-width:0.1"
       vector-effect="non-scaling-stroke"
       sodipodi:insensitive="true" />
    <path
       d="m 136,153 v 11.25 h -3 v 7.5 h 3 v 7.5 h -3 v 7.5 h 3 v 7.5 h -3 v 7.5 h 3 v 7.5 h -3 v 7.5 h 3 v 7.5 h -3 v 7.5 h 3 v 7.5 h -3 v 7.5 h 3 v 7.5 h -3 v 7.5 h 3 v 7.5 h -3 v 7.5 h 3 v 7.5 h -3 v 7.5 h 3 v 7.5 3.75 h 3.75 v -3 h 7.5 v 3 h 7.5 v -3 h 7.5 v 3 H 166 v -11.25 h 3 v -7.5 h -3 v -7.5 h 3 v -7.5 h -3 v -7.5 h 3 v -7.5 h -3 v -7.5 h 3 v -7.5 h -3 v -7.5 h 3 v -7.5 h -3 v -7.5 h 3 v -7.5 h -3 v -7.5 h 3 v -7.5 h -3 v -7.5 h 3 v -7.5 h -3 v -7.5 h 3 v -7.5 h -3 v -7.5 -3.75 h -3.75 v 3 h -7.5 v -3 h -7.5 v 3 h -7.5 v -3 z"
       id="left_outsideCutPath"
       stroke="#FF0000"
       stroke-width="0.1"
       style="stroke:#ff0000;stroke-width:0.1"
       vector-effect="non-scaling-stroke"
       sodipodi:insensitive="true" />
    <path
       d="m 175,270 v 3.75 h -3 v 7.5 h 3 v 7.5 h -3 v 7.5 h 3 V 300 h 5.75 v 3 h 7.5 v -3 h 7.5 v 3 h 7.5 v -3 h 7.5 v 3 h 7.5 v -3 h 7.5 v 3 h 7.5 v -3 h 7.5 v 3 h 7.5 v -3 h 7.5 v 3 h 7.5 v -3 h 7.5 v 3 h 7.5 v -3 h 7.5 v 3 h 7.5 v -3 H 299 v -3.75 h 3 v -7.5 h -3 v -7.5 h 3 v -7.5 h -3 V 270 h -5.75 v -3 h -7.5 v 3 h -7.5 v -3 h -7.5 v 3 h -7.5 v -3 h -7.5 v 3 h -7.5 v -3 h -7.5 v 3 h -7.5 v -3 h -7.5 v 3 h -7.5 v -3 h -7.5 v 3 h -7.5 v -3 h -7.5 v 3 h -7.5 v -3 h -7.5 v 3 z"
       id="top_outsideCutPath"
       stroke="#FF0000"
       stroke-width="0.1"
       style="stroke:#ff0000;stroke-width:0.1"
       vector-effect="non-scaling-stroke"
       sodipodi:insensitive="true" />
    <path
       d="m 0,0 v 11.25 h 3 v 7.5 H 0 v 7.5 h 3 v 7.5 H 0 v 7.5 h 3 v 7.5 H 0 v 7.5 h 3 v 7.5 H 0 v 7.5 h 3 v 7.5 H 0 v 7.5 h 3 v 7.5 H 0 v 7.5 h 3 v 7.5 H 0 v 7.5 h 3 v 7.5 H 0 v 7.5 h 3 v 7.5 H 0 v 7.5 3.75 h 8.75 v -3 h 7.5 v 3 h 7.5 v -3 h 7.5 v 3 h 7.5 v -3 h 7.5 v 3 h 7.5 v -3 h 7.5 v 3 h 7.5 v -3 h 7.5 v 3 h 7.5 v -3 h 7.5 v 3 h 7.5 v -3 h 7.5 v 3 h 7.5 v -3 h 7.5 v 3 H 130 v -11.25 h -3 v -7.5 h 3 v -7.5 h -3 v -7.5 h 3 v -7.5 h -3 v -7.5 h 3 v -7.5 h -3 v -7.5 h 3 v -7.5 h -3 v -7.5 h 3 v -7.5 h -3 v -7.5 h 3 v -7.5 h -3 v -7.5 h 3 v -7.5 h -3 v -7.5 h 3 v -7.5 h -3 v -7.5 h 3 V 3.75 0 h -8.75 v 3 h -7.5 V 0 h -7.5 v 3 h -7.5 V 0 h -7.5 v 3 h -7.5 V 0 h -7.5 v 3 h -7.5 V 0 h -7.5 v 3 h -7.5 V 0 h -7.5 v 3 h -7.5 V 0 h -7.5 v 3 h -7.5 V 0 h -7.5 V 3 H 8.75 V 0 Z"
       id="back_outsideCutPath"
       stroke="#FF0000"
       stroke-width="0.1"
       style="stroke:#ff0000;stroke-width:0.1"
       vector-effect="non-scaling-stroke" />
    <path
       d="m 136,0 v 11.25 h -3 v 7.5 h 3 v 7.5 h -3 v 7.5 h 3 v 7.5 h -3 v 7.5 h 3 v 7.5 h -3 v 7.5 h 3 v 7.5 h -3 v 7.5 h 3 v 7.5 h -3 v 7.5 h 3 v 7.5 h -3 v 7.5 h 3 v 7.5 h -3 v 7.5 h 3 v 7.5 h -3 v 7.5 h 3 v 7.5 3.75 h 3.75 v -3 h 7.5 v 3 h 7.5 v -3 h 7.5 v 3 H 166 v -11.25 h 3 v -7.5 h -3 v -7.5 h 3 v -7.5 h -3 v -7.5 h 3 v -7.5 h -3 v -7.5 h 3 v -7.5 h -3 v -7.5 h 3 v -7.5 h -3 v -7.5 h 3 v -7.5 h -3 v -7.5 h 3 v -7.5 h -3 v -7.5 h 3 v -7.5 h -3 v -7.5 h 3 v -7.5 h -3 V 3.75 0 h -3.75 v 3 h -7.5 V 0 h -7.5 v 3 h -7.5 V 0 Z"
       id="right_outsideCutPath"
       stroke="#FF0000"
       stroke-width="0.1"
       style="stroke:#ff0000;stroke-width:0.1"
       vector-effect="non-scaling-stroke"
       sodipodi:insensitive="true" />
    <path
       d="m 175,231 v 3.75 h -3 v 7.5 h 3 v 7.5 h -3 v 7.5 h 3 V 261 h 5.75 v 3 h 7.5 v -3 h 7.5 v 3 h 7.5 v -3 h 7.5 v 3 h 7.5 v -3 h 7.5 v 3 h 7.5 v -3 h 7.5 v 3 h 7.5 v -3 h 7.5 v 3 h 7.5 v -3 h 7.5 v 3 h 7.5 v -3 h 7.5 v 3 h 7.5 v -3 H 299 v -3.75 h 3 v -7.5 h -3 v -7.5 h 3 v -7.5 h -3 V 231 h -5.75 v -3 h -7.5 v 3 h -7.5 v -3 h -7.5 v 3 h -7.5 v -3 h -7.5 v 3 h -7.5 v -3 h -7.5 v 3 h -7.5 v -3 h -7.5 v 3 h -7.5 v -3 h -7.5 v 3 h -7.5 v -3 h -7.5 v 3 h -7.5 v -3 h -7.5 v 3 z"
       id="bottom_outsideCutPath"
       stroke="#FF0000"
       stroke-width="0.1"
       style="stroke:#ff0000;stroke-width:0.1"
       vector-effect="non-scaling-stroke"
       sodipodi:insensitive="true" />
    <rect
       style="fill-opacity:0;fill-rule:evenodd;stroke:#0000ff;stroke-width:0.0100132;stroke-dasharray:none;stroke-opacity:1;paint-order:normal"
       id="right_hole"
       width="14.989986"
       height="2.9899869"
       x="143.51656"
       y="114.01629"
       sodipodi:insensitive="true" />
    <rect
       style="fill-opacity:0;fill-rule:evenodd;stroke:#0000ff;stroke-width:0.0100132;stroke-dasharray:none;stroke-opacity:1;paint-order:normal"
       id="left_hole"
       width="14.989986"
       height="2.9899869"
       x="143.50829"
       y="266.90628"
       sodipodi:insensitive="true" />
    <rect
       style="fill-opacity:0;fill-rule:evenodd;stroke:#0000ff;stroke-width:0.0100226;stroke-dasharray:none;stroke-opacity:1;paint-order:normal"
       id="led_hole"
       width="117.98998"
       height="23.989977"
       x="6.0000114"
       y="273.005"
       sodipodi:insensitive="true" />
    <g
       id="g11687"
       inkscape:label="buzzer_hole"
       transform="translate(-0.01400838,-22.219591)"
       sodipodi:insensitive="true">
      <rect
         style="fill-opacity:0;fill-rule:evenodd;stroke:#0000ff;stroke-width:0.0100313;stroke-dasharray:none;stroke-opacity:1;paint-order:normal"
         id="rect11620"
         width="73.989967"
         height="2.9899688"
         x="6.0139995"
         y="181.23358"
         ry="0"
         inkscape:label="buzzer_hole_1"
         sodipodi:insensitive="true" />
      <rect
         style="fill-opacity:0;fill-rule:evenodd;stroke:#0000ff;stroke-width:0.0100313;stroke-dasharray:none;stroke-opacity:1;paint-order:normal"
         id="rect11691"
         width="73.989967"
         height="2.9899688"
         x="6.0139995"
         y="187.2236"
         ry="0"
         inkscape:label="buzzer_hole_2"
         sodipodi:insensitive="true" />
      <rect
         style="fill-opacity:0;fill-rule:evenodd;stroke:#0000ff;stroke-width:0.0100313;stroke-dasharray:none;stroke-opacity:1;paint-order:normal"
         id="rect11693"
         width="73.989967"
         height="2.9899688"
         x="6.0139995"
         y="193.21361"
         ry="0"
         inkscape:label="buzzer_hole_3"
         sodipodi:insensitive="true" />
      <rect
         style="fill-opacity:0;fill-rule:evenodd;stroke:#0000ff;stroke-width:0.0100313;stroke-dasharray:none;stroke-opacity:1;paint-order:normal"
         id="rect11695"
         width="73.989967"
         height="2.9899688"
         x="6.0139995"
         y="199.20361"
         ry="0"
         inkscape:label="buzzer_hole_4"
         sodipodi:insensitive="true" />
      <rect
         style="fill-opacity:0;fill-rule:evenodd;stroke:#0000ff;stroke-width:0.0100313;stroke-dasharray:none;stroke-opacity:1;paint-order:normal"
         id="rect11697"
         width="73.989967"
         height="2.9899688"
         x="6.0139995"
         y="205.1936"
         ry="0"
         inkscape:label="buzzer_hole_5"
         sodipodi:insensitive="true" />
    </g>
    <rect
       style="fill-opacity:0;fill-rule:evenodd;stroke:#0000ff;stroke-width:0.01;stroke-dasharray:none;stroke-opacity:1;paint-order:normal"
       id="rect11689"
       width="22.900187"
       height="22.900187"
       x="92.004997"
       y="161.03891"
       inkscape:label="PIR_hole"
       sodipodi:insensitive="true" />
    <rect
       style="fill-opacity:0;fill-rule:evenodd;stroke:#0000ff;stroke-width:0.00999404;stroke-dasharray:none;stroke-opacity:1;paint-order:normal"
       id="rect11726"
       width="11.990006"
       height="7.990006"
       x="20.825832"
       y="92.534164"
       inkscape:label="USB_hole"
       sodipodi:insensitive="true" />
    <rect
       style="fill-opacity:0;fill-rule:evenodd;stroke:#0000ff;stroke-width:0.00999922;stroke-dasharray:none;stroke-opacity:1;paint-order:normal"
       id="rect11728"
       width="8.4900007"
       height="8.4913254"
       x="-53.786011"
       y="92.004997"
       inkscape:label="button_hole"
       transform="scale(-1,1)"
       sodipodi:insensitive="true" />
    <rect
       style="fill-opacity:0;fill-rule:evenodd;stroke:#ff0000;stroke-width:0.0102381;stroke-dasharray:none;stroke-opacity:1;paint-order:normal"
       id="rect327"
       width="123.9765"
       height="23.989761"
       x="175.01175"
       y="199.14011"
       inkscape:label="middle_insideCutPath" />
    <g
       id="g1801"
       inkscape:label="screw_hole1"
       transform="translate(-10.626144,-11.08704)"
       sodipodi:insensitive="true">
      <rect
         style="fill-opacity:0;fill-rule:evenodd;stroke:#0000ff;stroke-width:0.01;stroke-dasharray:none;stroke-opacity:1;paint-order:normal"
         id="rect306"
         width="3.9972394"
         height="9.9972391"
         x="73.627525"
         y="24.229406"
         inkscape:label="rect1"
         ry="1.9986197" />
      <circle
         style="fill-opacity:0;fill-rule:evenodd;stroke:#0000ff;stroke-width:0.011;stroke-dasharray:none;stroke-opacity:1"
         id="path967"
         cx="75.626144"
         cy="34.231644"
         inkscape:label="round1"
         r="3.9943681" />
    </g>
    <g
       id="g1823"
       inkscape:label="screw_hole2"
       transform="translate(-65.145237,62.72331)"
       sodipodi:insensitive="true">
      <rect
         style="fill-opacity:0;fill-rule:evenodd;stroke:#0000ff;stroke-width:0.01;stroke-dasharray:none;stroke-opacity:1;paint-order:normal"
         id="rect1819"
         width="3.9972394"
         height="9.9972391"
         x="73.627525"
         y="24.229406"
         inkscape:label="rect1"
         ry="1.9986197" />
      <circle
         style="fill-opacity:0;fill-rule:evenodd;stroke:#0000ff;stroke-width:0.01;stroke-dasharray:none;stroke-opacity:1"
         id="circle1821"
         cx="75.626144"
         cy="34.231644"
         inkscape:label="round1"
         r="3.9943681" />
    </g>
    <g
       id="g1829"
       inkscape:label="screw_hole3"
       transform="translate(-8.1917054,62.933297)"
       sodipodi:insensitive="true">
      <rect
         style="fill-opacity:0;fill-rule:evenodd;stroke:#0000ff;stroke-width:0.01;stroke-dasharray:none;stroke-opacity:1;paint-order:normal"
         id="rect1825"
         width="3.9972394"
         height="9.9972391"
         x="73.627525"
         y="24.229406"
         inkscape:label="rect1"
         ry="1.9986197" />
      <circle
         style="fill-opacity:0;fill-rule:evenodd;stroke:#0000ff;stroke-width:0.01;stroke-dasharray:none;stroke-opacity:1"
         id="circle1827"
         cx="75.626144"
         cy="34.231644"
         inkscape:label="round1"
         r="3.9943681" />
    </g>
  </g>
</svg>
